assets/images/icon/sedan.svg

<svg width="33" height="11" viewBox="0 0 33 11" fill="none" xmlns="http://www.w3.org/2000/svg">
<g clip-path="url(#clip0_669_1819)">
<path d="M5.32023 6.34039C4.04513 6.34039 3.03226 7.37181 3.03226 8.67024C3.03226 9.96867 4.04513 11.0001 5.32023 11.0001C6.59533 11.0001 7.6082 9.96867 7.6082 8.67024C7.5705 7.37181 6.55805 6.34039 5.32023 6.34039ZM5.32023 10.1218C4.53272 10.1218 3.85747 9.47259 3.85747 8.63228C3.85747 7.83035 4.49502 7.14275 5.32023 7.14275C6.14544 7.14275 6.78299 7.79196 6.78299 8.63228C6.74571 9.47216 6.10816 10.1218 5.32023 10.1218Z" fill="black"/>
<path d="M5.32028 9.73957C5.90026 9.73957 6.37043 9.2608 6.37043 8.6702C6.37043 8.0796 5.90026 7.60083 5.32028 7.60083C4.7403 7.60083 4.27013 8.0796 4.27013 8.6702C4.27013 9.2608 4.7403 9.73957 5.32028 9.73957Z" fill="black"/>
<path d="M32.4745 5.69112L32.0996 3.97253L32.2873 3.32332L29.2868 2.82681C29.2868 2.82681 24.7109 0.496963 23.8111 0.38265C20.8483 0.000884968 17.0976 -0.152252 14.472 0.421042C14.472 0.421042 13.2341 0.87916 9.74606 3.36171C9.74606 3.36171 4.04498 3.74347 1.94467 4.54583L1.08218 4.88963L0.181987 6.18806L0.256968 7.10473L-0.00567627 7.41014C-0.00567627 7.41014 0.181987 9.09077 0.144285 9.09077L2.54452 9.51092H2.6195C2.5453 9.23719 2.5074 8.95458 2.50681 8.67061C2.50681 7.10473 3.78191 5.8063 5.31965 5.8063C6.85739 5.8063 8.13249 7.10473 8.13249 8.67061C8.13249 8.97602 8.09479 9.24347 8.01981 9.51092H24.0352C23.9585 9.23772 23.9205 8.95475 23.9225 8.67061C23.9225 7.10473 25.1976 5.8063 26.7353 5.8063C28.2731 5.8063 29.5482 7.10473 29.5482 8.67061C29.5482 8.86171 29.5482 9.01441 29.5105 9.16712H29.6232L32.8113 8.63222L32.999 6.14967C32.9998 6.14967 32.7749 5.95857 32.4745 5.69112ZM2.13233 6.26398L0.857238 6.76049C0.857238 6.76049 1.11988 5.84383 1.71973 5.46206C2.05693 5.27096 3.21977 5.00394 3.21977 5.00394L2.13233 6.26398ZM26.6989 3.85779C23.8861 4.1632 20.398 4.08685 13.9094 4.43065C11.5464 4.54539 9.67108 4.62175 9.37115 4.65971C8.09606 4.77445 5.54544 4.81241 4.75793 4.92716C5.7331 4.54539 8.09606 4.3159 10.0087 4.23955C12.1467 2.63528 14.0594 1.4132 14.6219 1.26049C15.2222 1.06939 16.5346 0.802375 18.2977 0.840336L18.035 3.89575C18.4099 3.89575 19.1229 3.85736 19.1602 3.85736L19.4228 0.916689C20.473 0.955081 22.7982 1.06939 23.8484 1.29845L23.6607 3.70465C23.7734 3.70465 24.261 3.70465 24.4482 3.66626L24.6359 1.48912C26.6235 2.40579 27.8613 3.78057 27.8613 3.78057C27.8613 3.74347 27.4114 3.78143 26.6989 3.85779Z" fill="black"/>
<path d="M26.6991 6.34039C25.424 6.34039 24.4111 7.37181 24.4111 8.67024C24.4111 9.96867 25.424 11.0001 26.6991 11.0001C27.9742 11.0001 28.987 9.96867 28.987 8.67024C28.987 7.37181 27.9742 6.34039 26.6991 6.34039ZM26.6991 10.1218C25.9116 10.1218 25.2363 9.47259 25.2363 8.63228C25.2363 7.83035 25.8739 7.14275 26.6991 7.14275C27.4866 7.14275 28.1618 7.79196 28.1618 8.63228C28.1618 9.47216 27.4866 10.1218 26.6991 10.1218Z" fill="black"/>
<path d="M26.6991 9.73957C27.2791 9.73957 27.7493 9.2608 27.7493 8.6702C27.7493 8.0796 27.2791 7.60083 26.6991 7.60083C26.1191 7.60083 25.649 8.0796 25.649 8.6702C25.649 9.2608 26.1191 9.73957 26.6991 9.73957Z" fill="black"/>
</g>
<defs>
<clipPath id="clip0_669_1819">
<rect width="33" height="11" fill="white"/>
</clipPath>
</defs>
</svg>

<svg width="33" height="11" fill="currentColor" xmlns="http://www.w3.org/2000/svg"><g clip-path="url(#a)" fill="#000"><path d="M5.32 6.34c-1.275 0-2.288 1.032-2.288 2.33C3.032 9.97 4.045 11 5.32 11S7.608 9.97 7.608 8.67c-.037-1.298-1.05-2.33-2.288-2.33zm0 3.782c-.787 0-1.463-.65-1.463-1.49 0-.802.638-1.49 1.463-1.49.825 0 1.463.65 1.463 1.49-.037.84-.675 1.49-1.463 1.49z"/><path d="M5.32 9.74c.58 0 1.05-.48 1.05-1.07 0-.59-.47-1.07-1.05-1.07-.58 0-1.05.48-1.05 1.07 0 .59.47 1.07 1.05 1.07z"/><path d="M32.474 5.691 32.1 3.973l.187-.65-3-.496S24.71.497 23.81.383C20.848 0 17.098-.152 14.472.42c0 0-1.238.458-4.726 2.94 0 0-5.701.382-7.801 1.185l-.863.344-.9 1.298.075.917-.263.305s.188 1.68.15 1.68l2.4.42h.075a3.238 3.238 0 0 1-.112-.84c0-1.565 1.275-2.864 2.813-2.864 1.537 0 2.812 1.299 2.812 2.865 0 .305-.037.572-.112.84h16.015a3.03 3.03 0 0 1-.113-.84c0-1.566 1.276-2.865 2.813-2.865 1.538 0 2.813 1.299 2.813 2.865 0 .19 0 .343-.037.496h.112l3.188-.535L33 6.15s-.224-.191-.525-.459zm-30.342.573L.857 6.76s.263-.916.863-1.298c.337-.191 1.5-.458 1.5-.458l-1.088 1.26zM26.7 3.858c-2.813.305-6.301.229-12.79.573-2.363.114-4.238.19-4.538.229-1.275.114-3.826.152-4.613.267.975-.382 3.338-.611 5.25-.687 2.139-1.605 4.051-2.827 4.614-2.98.6-.19 1.913-.458 3.676-.42l-.263 3.056c.375 0 1.088-.039 1.125-.039l.263-2.94c1.05.038 3.375.152 4.425.381l-.187 2.407c.112 0 .6 0 .787-.039l.188-2.177c1.988.917 3.225 2.292 3.225 2.292 0-.038-.45 0-1.162.077z"/><path d="M26.7 6.34c-1.276 0-2.289 1.032-2.289 2.33 0 1.299 1.013 2.33 2.288 2.33s2.288-1.031 2.288-2.33c0-1.298-1.013-2.33-2.288-2.33zm0 3.782c-.788 0-1.464-.65-1.464-1.49 0-.802.638-1.49 1.463-1.49.788 0 1.463.65 1.463 1.49s-.675 1.49-1.463 1.49z"/><path d="M26.7 9.74c.58 0 1.05-.48 1.05-1.07 0-.59-.47-1.07-1.05-1.07-.58 0-1.051.48-1.051 1.07 0 .59.47 1.07 1.05 1.07z"/></g><defs><clipPath id="a"><path d="M0 0h33v11H0z"/></clipPath></defs></svg>≈
